X:1
T:Title
%%score { ( 1 4 5 ) | ( 2 3 ) }
L:1/8
M:4/4
K:Db
V:1 treble nm="Grand Piano"
V:4 treble 
V:5 treble 
V:2 bass 
V:3 bass 
V:1
 z4 z2[Q:1/4=100] FG | [DFA]2 [A,DF]2 [DEG]2 [DGB]2 | [DFA]4 [DF]2 [A,DF]2 | %3
 [CG]2 [CE]2 [DF]2 [CG]2 | [DF]6 [DF][EG] | [FA]2 F2 D2 F2 |[M:9/8] G2 B- B d2- d B2 | %7
[M:4/4] A2 F2 [CE]2 [CG]2 |[M:3/4] F6 |[M:1/4] FG |[M:4/4] A6 z2 | F6 z2 | G4 z4 | B4 A2 F2 | %14
 F4 z4 | d4 z4 | %16
 A4[K:bass] z4[Q:1/4=99][Q:1/4=97][Q:1/4=96][Q:1/4=94][Q:1/4=93][Q:1/4=91][Q:1/4=90][Q:1/4=88][Q:1/4=87][Q:1/4=85][Q:1/4=84][Q:1/4=82][Q:1/4=81][Q:1/4=79][Q:1/4=78][Q:1/4=76] | %17
[M:3/4] [F,D]6 |] %18
V:2
 z4 z2 DE | D,2 D,2 D,2 D,2 | z4 A,2 D,2 | [A,,A,]2 [A,,A,]2 [A,,A,]2 [A,,A,]2 | [D,A,]6 [D,A,]2 | %5
 [D,D]2 [D,A,D]2 [D,F,]2 [D,_CD]2 | %6
[M:9/8] [G,B,D]2[K:treble] [G,DG]- [G,DG] [G,B,G]2- [G,B,G] [G,DG]2 | %7
[M:4/4] [A,DF]2[K:bass] [A,D]2 [A,,A,]2 [A,,A,]2 |[M:3/4] [D,A,D]6 |[M:1/4] D[K:treble]E | %10
[M:4/4] F6[K:bass] z2 | D6 z2 | E4 z4 | G,4 F,2 D2 | D4 z4[K:treble] | %15
 F2[K:bass] G,,2 G,,2 [G,,G,]2 | [A,,F,]2 A,,2 A,,2 A,,2 |[M:3/4] D,6 |] %18
V:3
 z4 z2 [D,A,]2 | x8 | D,6 z2 | x8 | x8 | x8 |[M:9/8] x2[K:treble] x7 |[M:4/4] x2[K:bass] x6 | %8
[M:3/4] x6 |[M:1/4] x[K:treble] x |[M:4/4] z2[K:bass] D,2 D,2 DC | z2 B,,2 B,,2 D2 | %12
 z2 A,,2 [A,,A,]2 [A,,A,]2 | [D,D]6 z2 | z2 D,2 [D,F,]2[K:treble] F2 | x2[K:bass] x6 | x8 | %17
[M:3/4] x6 |] %18
V:4
 x8 | x8 | x8 | x8 | x8 | x8 |[M:9/8] x9 |[M:4/4] x8 |[M:3/4] x6 |[M:1/4] x2 | %10
[M:4/4] z2 D2 A,2 FE | z2 B,2 B,2 F2 | z2 A,2 [CE]2 [EG]2 | x8 | z2 A,2 D2 d2 | %15
 z2 G2- [DGB]2 [DB]2 | D2[K:bass] [F,D]2 [G,CE]2 [A,CF]2 |[M:3/4] x6 |] %18
V:5
 x8 | x8 | x8 | x8 | x8 | x8 |[M:9/8] x9 |[M:4/4] x8 |[M:3/4] x6 |[M:1/4] x2 |[M:4/4] x8 | x8 | %12
 x8 | x8 | x8 | z2 B,2 z4 | x2[K:bass] x6 |[M:3/4] x6 |] %18

